X:660
T: WIE FAELSCHLICH DIE JUDEN
N: E2038
O: Europa, Mitteleuropa, Deutschland, Hessen, Wuerges; Reifenberg
R: geistlich, Wallfahrts - Lied
M: 3/8
L: 1/16
K: G
D2 | G3AB2 | A3GA2 | B2c2B2 | A4
AB | c2c2BA | Bcd2cB | A2A2BA | G4
AB | c2c2BA | Bcd2cB | A2A2BA | G4

@@@ Tune index: 5344
